X:415
T: Das alte Jahr verflossen ist (5-10), S.24
N: P0685
O: Lothringen
S: MERKELBACH-PINCK, Angelika: Verklingende Weisen, Bd 5, Kassel 1962]
R: geistliches, religiöses Lied]
M: 4/4
L: 1/16
K: G
D4 | G6D2G4A4 | B4B2A2G4
F4 | G4D4G4A4 | B4B2A2G8
c8B3GG2G2 | A4A4G4
D2F2 | G6F2G4A4 | B4B2A2G8
c8B3GG2G2 | A4A4G4
D2F2 | G6F2G4A4 | B3BB4G2G2
G4 | G6D2G4A4 | B4B2A2G2G6
c8B3GG2G2 | A4A4G4
D2F2 | G6F2G4A4 | B4B2A2G8
c8B3GG2G2 | A4A4G4 |  |  |  |  |  |  |  |  |  |  |  |  |  |  |  |  |  |  |  |  |  |  |  |  |  |  |  |  |  |  |  |  |  |  |  |  |  |  |  |  |  | 
D2F2 | G6F2G4A4 | B3BB4G2G2 |  |  |  |  |  |  |  |  |  |  |  |  |  |  |  |  |  |  |  |  |  |  |  |  |  |  |  |  |  |  | 
g4 | G6D2G4A4 | B4B2A2G2G6 |  |  |  |  |  |  |  |  |  |  |  |  |  |  |  |  |  |  |  |  |  |  |  |  |  |  |  |  |  |  |  | 
c8B4G2G2 | A4A4G4

